build/img/icons/services/2.svg

<svg width="52" height="52" viewBox="0 0 52 52" fill="none" xmlns="http://www.w3.org/2000/svg">
<g clip-path="url(#clip0)">
<path fill-rule="evenodd" clip-rule="evenodd" d="M17.6709 20.5194C18.4376 20.3993 18.8758 20.5682 19.1206 21.1639C19.3586 21.7429 19.2267 22.2627 18.6417 22.5803C18.1702 22.8363 17.6972 23.075 17.2371 23.311C16.845 23.512 16.2068 23.9432 15.7346 23.9112C14.6336 23.8367 13.6757 22.3035 14.3885 21.464C14.7846 20.9975 16.9022 20.6398 17.6709 20.5194ZM31.3898 12.8019C31.5487 12.6184 31.9439 12.3291 32.1583 12.1664C32.4052 11.979 32.6652 11.752 33.1066 11.841C33.7417 11.9692 34.2168 12.6314 34.2277 13.4043C33.7776 13.4407 34.0583 13.2965 33.751 12.7904C33.6574 12.9644 33.6745 13.2856 33.5907 13.4711C33.4144 13.5227 33.1853 13.5022 33.0363 13.5961L34.2093 13.884C34.1019 14.6195 33.5888 14.7451 33.0355 15.0454C32.8246 15.1598 31.7078 15.7862 31.5606 15.7874L31.4167 14.4192L31.2903 15.0437L30.2637 15.0068C30.3655 15.1525 30.9547 15.5307 31.1482 15.6761L31.0497 16.0655C30.3076 16.2919 29.4465 15.3783 29.7325 14.6562C29.9417 14.1279 30.364 13.7452 30.7086 13.4138C30.8022 13.3238 30.9595 13.1388 31.0477 13.0739C31.3532 13.1648 31.8136 13.5937 32.1381 13.7209C32.0289 13.5072 31.489 12.9987 31.3898 12.8019ZM24.5645 8.4391C24.3956 8.13339 24.0451 7.80879 24.0093 7.62874C24.3391 7.71355 25.8292 8.47814 26.0356 8.66797L25.025 9.83023C25.1996 9.80162 25.8716 9.42082 26.0806 9.3101C26.6019 9.03396 26.5959 8.91328 27.0924 9.32389L26.7191 10.7402C27.0832 10.2087 27.4392 9.66271 27.7999 9.14666C27.7157 8.91496 27.0543 8.34931 26.8648 8.05878L28.0154 7.77508C28.1352 7.7758 29.5404 8.72483 29.7354 8.8554C29.9737 9.01501 30.3363 9.28803 30.5755 9.39731C30.5675 9.40528 30.5556 9.4147 30.5497 9.41908L30.1383 9.62444C28.4182 10.3701 26.9339 11.1294 25.2562 11.9222C24.8371 12.1202 23.8735 12.6757 23.5093 12.7713C23.4647 12.5225 23.3706 12.4401 23.4938 12.2073C23.6454 11.9206 24.1697 11.0531 24.218 10.8579C23.918 11.129 23.5308 11.593 23.2621 11.7578L22.9971 10.6542L22.7125 13.172L18.164 15.6636C17.7745 15.8717 17.4075 16.0838 17.0245 16.3077L13.6908 18.238C13.588 17.64 13.5803 16.8258 13.526 16.1975C13.4155 14.92 13.2037 13.5566 14.1127 12.5695C14.7435 11.8846 17.3199 10.2895 18.0335 9.92337C18.9693 9.44325 18.667 9.53549 19.6694 9.33751C20.2175 9.22919 20.9864 9.04362 21.5273 8.99923L20.7931 10.9336L22.004 9.19146C22.2674 8.8121 22.3981 8.68699 22.7177 8.4259C22.8898 8.28531 23.3417 7.82768 23.4957 7.74713L23.7073 9.17275L23.9201 8.19961L24.5645 8.4391ZM24.9939 7.02026L25.0477 6.97468C25.0542 6.96748 25.0872 6.93515 25.0942 6.92436C25.1352 6.86096 25.1587 6.89839 25.1277 6.76847C25.1047 6.67293 25.0057 6.61367 24.9242 6.56707C24.6117 6.38821 24.6082 6.56185 24.5446 6.83979C24.2889 6.78611 23.6195 6.44609 23.446 6.5435L22.6735 7.25046C22.526 7.38397 22.444 7.48905 22.2961 7.61326C21.6446 8.16062 22.1996 7.98357 20.6819 8.21976C19.8469 8.34973 18.9682 8.48066 18.1432 8.63906C17.4741 8.76754 15.0958 10.3781 14.413 10.8257C13.7371 11.2687 13.3149 11.5698 12.9158 12.289C11.9803 13.9746 12.6842 15.6709 12.6409 17.5365C12.0537 17.245 11.9287 17.0402 11.2037 17.406C10.375 17.8242 9.0978 18.833 10.1667 19.6768C10.5871 20.0087 11.4246 19.8117 12.0109 19.7884C11.6658 20.7523 11.4504 21.2398 11.653 22.4524C11.8537 23.6533 12.7587 25.0647 13.5609 25.9425C13.9293 26.3456 14.269 26.7887 14.7025 27.1077C15.2057 27.4781 15.6227 29.4044 16.5439 29.9228C17.4241 30.4181 18.1244 29.9699 18.8155 29.589C19.425 29.2532 20.4136 28.8609 20.7441 28.4281C21.5261 27.4044 20.7127 26.444 20.6462 26.1175C21.0496 25.8549 23.1198 24.9325 23.8347 24.5582C27.0086 22.8964 31.8841 20.497 34.626 18.594L35.6226 17.8067C35.9698 17.5266 36.7499 16.676 37.0096 16.1902C37.4061 15.4487 37.276 15.0703 37.1028 14.2378C36.8676 13.1076 36.3158 11.5848 35.7586 10.7966C35.2563 10.086 34.098 9.02526 32.8109 8.93596C32.9174 8.66066 33.5775 8.06915 33.698 7.66424L33.2912 7.43303C33.2725 7.42175 33.2273 7.39368 33.2058 7.37797C33.1964 7.37113 33.1856 7.36196 33.1772 7.35542L33.7352 7.29808C33.7664 6.84243 33.3184 6.40021 32.8398 6.41059C32.4727 6.41856 31.6901 6.67833 31.4051 6.84033C31.4294 7.10927 31.634 7.35146 31.7044 7.60427C31.434 7.43051 31.2605 7.25082 31.0096 7.08378C30.6635 7.30378 30.6443 7.63827 30.6007 8.14071C30.4721 8.10928 29.5606 7.45876 29.3847 7.33473C28.9701 7.04245 28.5606 6.76889 28.1425 6.48646C27.7941 6.2511 27.8611 6.31678 27.4117 6.45815C27.1344 6.54542 26.8836 6.62123 26.6142 6.70778C26.3447 6.79432 26.0832 6.86822 25.815 6.95333C25.3409 7.10381 25.4625 7.13026 24.9939 7.02026Z" fill="#9BA4D3"/>
<path fill-rule="evenodd" clip-rule="evenodd" d="M21.5096 0.0812322C21.3631 0.154765 21.1413 0.19441 21.2534 0.688448C21.3074 0.926441 21.4096 1.21457 21.4854 1.45545C21.7254 2.21776 22.2209 2.09955 22.5069 1.6253C22.6929 1.31684 23.2235 0.732532 23.0128 0.327441C22.8588 0.0313306 21.8635 -0.0963624 21.5096 0.0812322Z" fill="#DADBED"/>
<path fill-rule="evenodd" clip-rule="evenodd" d="M25.1788 5.06834C25.6703 5.25625 25.8024 5.07008 26.2368 4.82339C26.6873 4.5674 26.8299 4.29264 26.3459 3.9594C26.1177 3.80226 25.63 3.40491 25.3604 3.74678C25.1764 3.98004 25.107 4.77276 25.1788 5.06834Z" fill="#DADBED"/>
<path fill-rule="evenodd" clip-rule="evenodd" d="M20.7619 5.70708C20.6903 5.75572 20.5575 6.01908 20.5453 6.11727C20.4985 6.49309 21.0175 7.2764 21.4488 6.67302C22.4157 5.3201 20.7857 5.69089 20.7619 5.70708Z" fill="#DADBED"/>
<path fill-rule="evenodd" clip-rule="evenodd" d="M37.1636 28.6878C36.8324 28.3379 36.6578 28.2595 36.4173 27.7001C35.852 26.3853 36.1051 24.6011 36.587 23.3655C37.1498 21.922 38.3376 20.0277 40.116 19.9884L38.2299 19.4053C34.9363 18.5026 31.971 26.6022 35.397 28.009L37.1636 28.6878Z" fill="#9BA4D3"/>
<path fill-rule="evenodd" clip-rule="evenodd" d="M39.8119 21.3506C41.4962 20.9935 41.8283 23.2209 41.4451 24.7327C41.2774 25.3937 40.9521 26.1516 40.6022 26.6226C38.6337 29.2733 36.6067 27.3414 37.3857 24.4186C37.5914 23.6468 37.8613 23.0839 38.2336 22.5356C38.5954 22.0028 39.1398 21.4931 39.8119 21.3506ZM39.9911 20.1144C39.4689 20.1896 39.0221 20.4394 38.7135 20.6872C38.5345 20.8309 38.3953 20.9868 38.2377 21.1224C36.9521 22.228 35.9103 25.3796 36.5163 27.3951C37.4269 30.4236 40.9636 28.8957 41.9903 24.9265C42.2531 23.9108 42.3593 22.7218 42.0609 21.7017C41.8074 20.8349 41.1223 19.9516 39.9911 20.1144Z" fill="#9BA4D3"/>
<path fill-rule="evenodd" clip-rule="evenodd" d="M39.4563 21.8055L39.6 23.4678L40.0075 23.5986C40.2262 23.3917 40.3471 23.2252 40.5382 23.0174C40.752 22.7846 40.9638 22.6484 41.1048 22.4124C40.9248 21.7667 40.1591 21.3238 39.4563 21.8055Z" fill="#9BA4D3"/>
<path fill-rule="evenodd" clip-rule="evenodd" d="M37.633 24.7119C37.9165 24.6556 38.1858 24.5864 38.462 24.5314C38.9274 24.4386 38.7525 24.4082 38.9752 24.0339C39.2203 23.6217 38.9596 22.7578 38.9454 22.2218C38.3374 22.6552 37.8044 23.7401 37.633 24.7119Z" fill="#9BA4D3"/>
<path fill-rule="evenodd" clip-rule="evenodd" d="M37.541 25.292C37.4836 26.0796 37.637 27.1185 38.1623 27.3814C38.3586 27.1201 38.4728 26.5645 38.5883 26.227C38.7371 25.7926 38.9414 25.4614 38.6682 25.0491L37.541 25.292Z" fill="#9BA4D3"/>
<path fill-rule="evenodd" clip-rule="evenodd" d="M38.7233 27.5653C39.2128 27.5552 39.5233 27.3014 39.7995 27.0841C39.9883 26.9356 40.3777 26.4877 40.4862 26.2061L39.8016 25.386C39.5969 25.4599 39.7116 25.4261 39.5362 25.5587C39.4008 25.661 39.4102 25.5993 39.3272 25.7513C39.2719 25.8524 39.1667 26.2178 39.1201 26.3557C38.995 26.7257 38.7986 27.2094 38.7233 27.5653Z" fill="#9BA4D3"/>
<path fill-rule="evenodd" clip-rule="evenodd" d="M40.7823 25.6807C41.1726 24.9788 41.3064 24.0324 41.2858 23.1053C41.1133 23.1519 41.0941 23.2224 40.9783 23.3574C40.8848 23.4667 40.8179 23.5429 40.7175 23.6529C40.1618 24.2614 40.2348 23.8966 40.079 24.7411C40.0279 25.0179 40.2272 25.0365 40.4954 25.3908C40.6166 25.5508 40.6457 25.5485 40.7823 25.6807Z" fill="#9BA4D3"/>
<path fill-rule="evenodd" clip-rule="evenodd" d="M39.7573 23.9553C39.3776 23.8907 39.2462 24.0597 39.1097 24.3235C38.9913 24.5525 38.8964 25.0711 39.16 25.2184C39.6169 25.4738 40.0521 24.5343 39.7573 23.9553Z" fill="#9BA4D3"/>
<path fill-rule="evenodd" clip-rule="evenodd" d="M22.7638 31.3794C22.6235 31.545 19.128 33.2978 18.6281 33.5449C17.956 33.877 17.2297 34.3847 16.3354 34.4176C15.3827 34.4526 14.6914 33.9223 13.8988 33.7045L10.2594 42.1615C10.1115 42.5284 9.80427 42.9603 9.80421 43.3684C10.2597 43.5636 11.7282 44.1575 12.1685 44.2148C12.169 44.2147 13.5741 42.9667 15.2014 44.4997L15.7573 45.3098L15.8942 45.1719C17.2304 43.697 19.186 44.764 19.5875 46.2714C20.0967 46.0938 20.1962 45.9326 20.8865 45.9755C22.1579 46.0544 23.0777 47.0141 22.9696 48.4593C24.1697 48.4812 24.9699 48.9095 25.3246 49.951C25.4959 50.4537 25.3634 50.6578 25.4352 51.1227C26.4984 51.7906 27.6009 52.5856 28.6223 51.3616C29.2312 50.6319 28.7004 50.3329 28.184 49.9775C27.9023 49.7837 27.7662 49.6557 27.4754 49.4675C27.1965 49.287 26.995 49.2467 27.0666 48.7778C27.4849 48.4831 27.6872 48.7355 28.0308 48.9783C28.7646 49.497 29.9927 50.4285 30.822 50.5386C31.6969 50.6548 32.5765 50.061 32.662 49.4411C32.7582 48.7435 31.8127 48.236 31.3395 47.9122C30.7533 47.511 30.1821 47.096 29.5808 46.7197C28.1563 45.8281 28.9291 45.3984 29.6056 45.8612L33.0501 48.2214C33.6926 48.4899 33.7489 48.7836 34.7491 48.7475C35.4944 48.6386 36.615 47.9655 36.1533 47.0682C35.7766 46.3358 33.175 44.702 32.3648 44.1291L30.9004 43.0937C30.6356 42.908 30.6221 42.7782 30.7358 42.4524C31.2596 42.2793 31.6344 42.7363 32.0183 43C32.4238 43.2786 32.7779 43.5248 33.1473 43.7974C33.9478 44.3882 34.6795 44.89 35.4457 45.4053C36.1542 45.8817 37.0312 46.589 38.0581 46.6435C39.0291 46.6951 40.3976 45.7724 39.7138 44.7922C39.3827 44.3176 33.8238 40.6903 32.8897 40.0125L28.279 36.8702C27.863 36.5872 27.6229 36.303 26.9694 36.2543C25.4354 36.1401 24.994 37.2293 24.5813 37.7731C22.9777 39.8861 20.34 39.7357 19.5353 38.3087C19.3067 37.9032 19.1989 37.2447 19.3809 36.7342C19.4879 36.4343 19.6077 36.4351 19.8314 36.2276C20.5788 35.534 21.6076 34.5782 22.2103 33.7339C22.5063 33.3195 22.7761 32.9456 23.0935 32.6333C23.3757 32.3555 25.1475 31.471 25.6298 31.262C25.4275 31.1138 24.9372 31.0806 24.6648 31.0537C24.277 31.0499 23.9174 31.0136 23.5304 31.09C23.2016 31.155 23.0734 31.297 22.7638 31.3794Z" fill="white"/>
<path fill-rule="evenodd" clip-rule="evenodd" d="M39.5857 31.3575C39.4286 31.5038 39.4296 31.4685 39.2128 31.522C38.9148 32.0501 38.9138 31.7976 39.2399 32.7651C39.3995 33.2388 39.55 33.6338 39.7048 34.0947L42.4824 42.0213C42.8141 42.9506 43.0284 43.814 44.2108 43.8261C44.8028 43.8322 48.6897 42.3735 49.5831 42.075C52.6552 41.0487 52.7158 41.3094 52.2136 39.9189L48.9733 30.6637C48.8216 30.2316 48.6746 29.8456 48.515 29.3847C48.3397 28.8782 48.2694 28.4069 47.6035 28.6177L42.2743 30.4772C41.8388 30.6309 39.8921 31.3504 39.5857 31.3575Z" fill="#DADBED"/>
<path fill-rule="evenodd" clip-rule="evenodd" d="M13.4687 32.7944C13.7529 32.1391 13.1438 31.9999 12.6979 31.8164L6.21208 29.0686C4.51675 28.384 4.7013 28.2338 4.1095 29.6077C3.36481 31.3365 2.65059 33.0628 1.90603 34.7774C1.24393 36.3022 0.40676 38.4781 -0.26997 39.9007C-0.579216 40.5509 -0.51504 40.726 0.130922 40.992L4.01077 42.6225C4.87421 42.9994 5.73394 43.3564 6.62683 43.7214C7.82039 44.2092 8.57113 44.0913 9.06931 43.0917C9.54817 42.1308 10.795 39.0953 11.2824 37.9305C11.9859 36.2496 12.7151 34.5321 13.4687 32.7944Z" fill="#DADBED"/>
<path fill-rule="evenodd" clip-rule="evenodd" d="M27.8697 31.067C27.597 31.1989 27.1243 31.3226 26.797 31.465C26.4358 31.6221 26.1173 31.7966 25.7661 31.9719C22.4333 33.6352 24.1055 32.8335 21.5307 35.5562L20.331 36.727C20.1513 36.8712 20.0371 36.8723 19.993 37.1619C19.7378 38.8407 22.7925 39.6258 24.3858 36.8066C24.961 35.7889 26.4585 35.2952 27.6899 35.6643C27.9701 35.7483 28.4013 36.1007 28.6319 36.2623C29.2355 36.6851 29.8862 37.1304 30.4999 37.5334L39.8351 43.8896C39.9768 43.9344 41.8747 43.3052 42.1176 43.1121L38.6252 33.0982C38.1187 33.1524 37.5715 33.5356 37.0854 33.5372C36.9118 33.7103 36.5408 33.7743 36.3036 33.8566C35.9937 33.9641 35.7838 34.0601 35.4317 34.0952C34.665 34.1696 34.2694 33.8096 33.732 33.5297C33.2264 33.2664 32.7543 33.0161 32.2152 32.7406C31.8759 32.5672 29.3234 31.2653 29.2789 31.2075C28.5796 31.0353 28.6436 31.0029 27.8697 31.067Z" fill="#DADBED"/>
<path fill-rule="evenodd" clip-rule="evenodd" d="M22.215 48.5594C22.5103 47.861 21.9523 46.5782 20.6249 46.671C19.8848 46.7228 19.3426 47.6547 18.7632 48.4267C17.8351 49.6636 20.4681 50.9174 21.4767 49.5999C21.6455 49.3794 22.1301 48.7603 22.215 48.5594Z" fill="#DADBED"/>
<path fill-rule="evenodd" clip-rule="evenodd" d="M15.5658 47.0854C15.617 47.6716 16.6975 48.4351 17.5448 48.2987C18.1464 48.2019 19.0609 47.3038 18.9101 46.4458C18.7873 45.7481 17.8771 44.9485 16.9306 45.2407C16.5722 45.3514 15.522 46.5837 15.5658 47.0854Z" fill="#DADBED"/>
<path fill-rule="evenodd" clip-rule="evenodd" d="M24.6754 50.9945C25.0201 50.1414 24.274 49.4337 23.6667 49.2336C22.672 48.9059 22.3283 49.5688 21.9379 50.1269C21.3978 50.8989 22.1809 51.5935 22.7963 51.8341C23.7285 52.1986 24.4374 51.5833 24.6754 50.9945Z" fill="#DADBED"/>
<path fill-rule="evenodd" clip-rule="evenodd" d="M12.5018 45.4833C12.6344 45.9314 13.3507 46.4112 13.8283 46.5805C14.5723 46.8442 15.2574 46.591 15.0925 45.7011C14.8049 44.1499 12.0771 44.0485 12.5018 45.4833Z" fill="#DADBED"/>
</g>
<defs>
<clipPath id="clip0">
<rect width="52" height="52" fill="white"/>
</clipPath>
</defs>
</svg>

<svg width="52" height="52" viewBox="0 0 52 52" fill="none" xmlns="http://www.w3.org/2000/svg"><g clip-path="url(#clip0)" fill-rule="evenodd" clip-rule="evenodd"><path d="M17.67 20.52c.768-.12 1.206.048 1.45.644.239.579.107 1.099-.478 1.416-.472.256-.945.495-1.405.731-.392.201-1.03.632-1.502.6-1.101-.074-2.06-1.608-1.346-2.447.396-.466 2.513-.824 3.282-.945zm13.72-7.718c.159-.184.554-.473.768-.636.247-.187.507-.414.949-.325.635.128 1.11.79 1.12 1.563-.45.037-.169-.107-.476-.614-.094.174-.076.496-.16.681-.177.052-.406.031-.555.125l1.173.288c-.107.736-.62.861-1.174 1.161-.21.115-1.327.741-1.474.742l-.144-1.368-.127.625-1.026-.037c.102.146.69.524.884.67l-.098.389c-.742.226-1.604-.688-1.317-1.41.209-.528.631-.91.976-1.242.093-.09.25-.275.339-.34.305.09.766.52 1.09.647-.11-.214-.649-.722-.748-.92zm-6.826-4.363c-.168-.306-.519-.63-.555-.81.33.085 1.82.85 2.027 1.039L25.025 9.83c.175-.028.847-.41 1.056-.52.52-.276.515-.397 1.011.014l-.373 1.416c.364-.531.72-1.077 1.08-1.593-.083-.232-.745-.798-.934-1.088l1.15-.284c.12 0 1.525.95 1.72 1.08.239.16.601.433.84.542a.272.272 0 01-.025.022l-.412.205c-1.72.746-3.204 1.505-4.882 2.298-.419.198-1.383.754-1.747.85-.044-.25-.138-.332-.015-.565.151-.286.676-1.154.724-1.35-.3.272-.687.736-.956.9l-.265-1.103-.285 2.518-4.548 2.492c-.39.208-.757.42-1.14.644l-3.333 1.93c-.103-.598-.11-1.412-.165-2.04-.11-1.278-.322-2.641.587-3.629.63-.684 3.207-2.28 3.92-2.646.936-.48.634-.388 1.636-.585.549-.109 1.317-.294 1.858-.339l-.734 1.935 1.211-1.743c.263-.379.394-.504.714-.765.172-.14.624-.598.778-.679l.211 1.426.213-.973.644.24zm.43-1.419l.054-.045c.006-.008.04-.04.046-.05.041-.064.065-.027.034-.157-.023-.095-.122-.154-.204-.2-.312-.18-.316-.006-.38.272-.255-.054-.925-.394-1.098-.296l-.773.706c-.147.134-.229.239-.377.363-.651.548-.096.37-1.614.607-.835.13-1.714.26-2.539.42-.669.128-3.047 1.738-3.73 2.186-.676.443-1.098.744-1.497 1.463-.936 1.686-.232 3.382-.275 5.248-.587-.292-.712-.497-1.437-.131-.829.418-2.106 1.427-1.037 2.27.42.333 1.258.136 1.844.112-.345.964-.56 1.452-.358 2.664.2 1.201 1.106 2.613 1.908 3.49.368.404.708.847 1.142 1.166.503.37.92 2.296 1.84 2.815.881.495 1.581.047 2.273-.334.609-.336 1.598-.728 1.928-1.16.782-1.025-.031-1.985-.098-2.311.404-.263 2.474-1.185 3.189-1.56 3.174-1.662 8.05-4.061 10.791-5.964l.997-.787c.347-.28 1.127-1.131 1.387-1.617.396-.741.266-1.12.093-1.952-.235-1.13-.787-2.653-1.344-3.441-.503-.711-1.661-1.772-2.948-1.861.106-.275.767-.867.887-1.272l-.407-.231a1.559 1.559 0 01-.085-.055l-.029-.023.558-.057c.031-.456-.417-.898-.895-.887-.367.008-1.15.267-1.435.43.024.268.229.51.3.763-.271-.173-.444-.353-.695-.52-.347.22-.366.554-.41 1.057-.128-.032-1.04-.682-1.215-.806-.415-.293-.824-.566-1.243-.849-.348-.235-.28-.17-.73-.028-.278.087-.528.163-.798.25-.27.086-.53.16-.799.245-.474.15-.353.177-.821.067z" fill="#9BA4D3"/><path d="M21.51.081c-.147.074-.369.113-.257.607.054.238.157.527.232.767.24.763.736.645 1.022.17.186-.308.716-.892.506-1.298-.154-.296-1.15-.423-1.503-.246zm3.669 4.987c.491.188.623.002 1.058-.245.45-.256.593-.53.109-.864-.228-.157-.716-.554-.986-.212-.184.233-.253 1.026-.181 1.321zm-4.417.639c-.072.049-.204.312-.217.41-.047.376.472 1.16.904.556.967-1.353-.663-.982-.687-.966z" fill="#DADBED"/><path d="M37.164 28.688c-.332-.35-.506-.428-.747-.988-.565-1.315-.312-3.099.17-4.334.563-1.444 1.75-3.338 3.529-3.378l-1.886-.583c-3.294-.902-6.259 7.197-2.833 8.604l1.767.679z" fill="#9BA4D3"/><path d="M39.812 21.35c1.684-.357 2.016 1.87 1.633 3.383-.168.66-.493 1.419-.843 1.89-1.968 2.65-3.995.718-3.216-2.204a5.866 5.866 0 01.848-1.883c.361-.533.906-1.043 1.578-1.185zm.18-1.236a2.703 2.703 0 00-1.278.573c-.18.144-.319.3-.476.435-1.286 1.106-2.328 4.258-1.722 6.273.91 3.029 4.448 1.5 5.474-2.468.263-1.016.37-2.205.07-3.225-.253-.867-.938-1.75-2.069-1.588z" fill="#9BA4D3"/><path d="M39.456 21.805l.144 1.663.407.13c.22-.206.34-.373.531-.58.214-.233.426-.37.567-.606-.18-.645-.946-1.088-1.649-.607zm-1.823 2.907c.283-.056.553-.126.829-.18.465-.093.29-.124.513-.498.245-.412-.015-1.276-.03-1.812-.608.433-1.14 1.518-1.312 2.49zm-.092.58c-.057.788.096 1.826.621 2.09.197-.262.31-.818.426-1.155.15-.434.353-.766.08-1.178l-1.127.243zm1.182 2.273c.49-.01.8-.264 1.077-.48.188-.15.578-.597.686-.879l-.684-.82c-.205.074-.09.04-.266.173-.135.102-.126.04-.209.192-.055.101-.16.467-.207.605-.125.37-.321.853-.397 1.21zm2.059-1.885c.39-.701.524-1.648.504-2.575-.173.047-.192.117-.308.252-.093.11-.16.186-.26.296-.556.608-.483.244-.639 1.088-.051.277.148.296.416.65.122.16.15.158.287.29zm-1.025-1.725c-.38-.064-.51.105-.647.369-.119.228-.214.747.05.894.457.256.892-.684.597-1.263z" fill="#9BA4D3"/><path d="M22.764 31.38c-.14.165-3.636 1.918-4.136 2.165-.672.332-1.398.84-2.293.873-.952.035-1.644-.496-2.436-.713l-3.64 8.456c-.148.367-.455.8-.455 1.207.456.196 1.924.79 2.364.847.001 0 1.406-1.248 3.033.285l.556.81.137-.138c1.336-1.475 3.292-.408 3.693 1.1.51-.178.61-.34 1.3-.297 1.27.08 2.19 1.04 2.083 2.484 1.2.022 2 .45 2.355 1.492.17.503.038.707.11 1.172 1.063.668 2.166 1.463 3.187.239.61-.73.078-1.03-.438-1.385-.282-.193-.418-.321-.709-.51-.279-.18-.48-.22-.408-.69.418-.294.62-.041.964.201.734.519 1.962 1.45 2.791 1.56.875.117 1.755-.477 1.84-1.097.096-.698-.85-1.205-1.322-1.529-.587-.401-1.158-.816-1.76-1.192-1.424-.892-.65-1.322.026-.859l3.444 2.36c.643.269.699.563 1.7.527.744-.11 1.865-.782 1.403-1.68-.376-.732-2.978-2.366-3.788-2.939L30.9 43.094c-.264-.186-.278-.316-.164-.642.524-.173.898.284 1.282.548.406.279.76.525 1.13.797.8.591 1.531 1.093 2.298 1.608.708.477 1.585 1.184 2.612 1.239.971.051 2.34-.872 1.656-1.852-.331-.474-5.89-4.102-6.824-4.78l-4.611-3.142c-.416-.283-.656-.567-1.31-.616-1.534-.114-1.975.975-2.388 1.52-1.603 2.112-4.241 1.962-5.046.535-.228-.406-.336-1.064-.154-1.575.107-.3.227-.299.45-.506.748-.694 1.777-1.65 2.38-2.494.295-.415.565-.788.883-1.1.282-.279 2.053-1.163 2.536-1.372-.203-.148-.693-.181-.965-.208-.388-.004-.748-.04-1.135.036-.328.065-.457.207-.766.29z" fill="#fff"/><path d="M39.586 31.358c-.157.146-.156.11-.373.164-.298.528-.3.276.027 1.243.16.474.31.869.465 1.33l2.777 7.926c.332.93.546 1.793 1.729 1.805.592.006 4.479-1.453 5.372-1.751 3.072-1.026 3.133-.766 2.63-2.156l-3.24-9.255c-.151-.432-.298-.818-.458-1.28-.175-.506-.246-.977-.912-.766l-5.329 1.86c-.435.153-2.382.872-2.688.88zm-26.117 1.436c.284-.655-.325-.794-.771-.978L6.212 29.07c-1.695-.685-1.51-.835-2.103.539-.744 1.729-1.458 3.455-2.203 5.17-.662 1.524-1.5 3.7-2.176 5.123-.31.65-.245.825.4 1.091l3.88 1.63c.864.377 1.724.734 2.617 1.1 1.193.487 1.944.37 2.442-.63.48-.961 1.726-3.997 2.213-5.161a435.44 435.44 0 012.187-5.137zm14.401-1.727c-.273.132-.746.256-1.073.398-.361.157-.68.332-1.03.507-3.334 1.663-1.662.861-4.236 3.584l-1.2 1.171c-.18.144-.294.145-.338.435-.255 1.679 2.8 2.464 4.393-.355.575-1.018 2.073-1.512 3.304-1.143.28.084.711.437.942.598.603.423 1.254.868 1.868 1.271l9.335 6.357c.142.044 2.04-.585 2.283-.778l-3.493-10.014c-.506.054-1.053.438-1.54.44-.173.172-.544.236-.781.319-.31.107-.52.203-.872.238-.767.075-1.163-.285-1.7-.565-.506-.264-.978-.514-1.517-.79-.34-.173-2.892-1.475-2.936-1.533-.7-.172-.635-.204-1.41-.14zM22.215 48.56c.295-.699-.263-1.982-1.59-1.889-.74.052-1.282.984-1.862 1.756-.928 1.237 1.705 2.49 2.714 1.173.168-.22.653-.84.738-1.04zm-6.649-1.475c.051.587 1.132 1.35 1.979 1.214.601-.097 1.516-.995 1.365-1.853-.123-.698-1.033-1.497-1.98-1.205-.358.11-1.408 1.343-1.364 1.844zm9.109 3.91c.345-.854-.401-1.561-1.008-1.761-.995-.328-1.339.335-1.73.893-.54.772.244 1.466.86 1.707.931.365 1.64-.25 1.878-.84zm-12.173-5.512c.132.448.849.928 1.326 1.098.744.263 1.43.01 1.264-.88-.287-1.551-3.015-1.653-2.59-.218z" fill="#DADBED"/></g><defs><clipPath id="clip0"><path fill="#fff" d="M0 0h52v52H0z"/></clipPath></defs></svg>
